X:1
T:Peace to My Soul
T:Peace to My Soul
T:John Robson Sweney
T:Frances Jane (Fanny) Crosby, 1875
T:Public Domain Courtesy of the Cyber Hymnal™
C:John Robson Sweney
Z:Public Domain
Z:Courtesy of the Cyber Hymnal™
%%score ( 1 2 ) ( 3 4 )
L:1/8
Q:1/4=160
M:6/4
K:Ab
V:1 treble 
V:2 treble 
V:3 bass 
V:4 bass 
V:1
 [CE]6 [CE]2 [DF]2 [CE]2 | [CA]6 [Ec]6 | [Fd]6 [Fd]2 [FA]2 [_FB]2 | [Ec]6- [Ec]4 z2 | %4
w: 1.~O Je- sus, my|Sav- ior,|All glo- ry to|Thee; *|
w: 2.~What heights of en-|joy- ment,|What rap- ture is|mine; *|
w: 3.~Should sor- row o’er-|take me,|Thy Word is my|stay; *|
w: 4.~O lov- ing Re-|deem- er,|What- ev- er Thy|will, *|
 [EB]6 [EB]2 [Ec]2 [EB]2 | [EB]6 [EG]6 | [=DF]6 [DA]2 [DG]2 [DF]2 | (z6 d6) || %8
w: Sweet peace in be-|liev- ing|Thou giv- est to||
w: While faith- ful- ly|trust- ing|Thy prom- ise di-||
w: Should tri- als be-|fall me|Thou guid- est my||
w: In tem- pests or|sun- shine,|I’ll fol- low Thee||
"^Refrain" [Ec]6 [DB]2 [Ec]2 [DB]2 | [C-A]6 [CE]4 z2 | [DA]2 [DG]2 [DA]2 [DB]2 [DA]2 [DF]2 | %11
w: * me. * *|||
w: * vine. Peace, peace|to *|my soul Flows like a beau-|
w: * way. * *|||
w: * still. * *|||
 [DF]6 [CE]6 | [EA]6 [Ec]2 [EB]2 [_GA]2 | ([F-d]6 [DF]6) | [CE]2 [CE]2 [CE]2 E2 [=DF]2 [_DA]2 | %15
w: ||||
w: ti- ful|riv- er; Peace, hall-|owed *|and pure, Con- stant a- bid-|
w: ||||
w: ||||
 [DB]6 [CA]4 z2 |] %16
w: |
w: ing for-|
w: |
w: |
V:2
 x12 | x12 | x12 | x12 | x12 | x12 | x12 | E12 || x12 | x12 | x12 | x12 | x12 | x12 | x6 E2 x4 | %15
 x12 |] %16
V:3
 [A,,A,]6 [A,,A,]2 [A,,A,]2 [A,,A,]2 | [A,,E,]6 [A,,A,]6 | [D,A,]6 [D,A,]2 [D,D]2 [D,A,]2 | %3
 [A,,A,]6- [A,,A,]4 z2 | [E,G,]6 [E,G,]2 [E,A,]2 [E,G,]2 | [E,G,]6 [E,B,]6 | %6
 [B,,B,]6 [B,,F,]2 [B,,B,]2 [B,,A,]2 | ([E,G,]4 [F,A,]2 [G,B,]6) || A,6 [E,G,]2 [E,A,]2 E,2 | %9
 [A,,-E,]6 [A,,A,]4 z2 | [D,F,]2 [D,=E,]2 [D,F,]2 [D,F,]2 [D,F,]2 [D,A,]2 | [A,,A,]6 [A,,A,]6 | %12
 [A,C]6 [A,,A,]2 [B,,G,]2 [C,A,]2 | [D,A,]12 | [E,A,]2 [E,A,]2 [E,A,]2 [E,G,]2 [E,A,]2 [E,B,]2 | %15
 [E,G,]6 [A,,A,]4 z2 |] %16
V:4
 x12 | x12 | x12 | x12 | x12 | x12 | x12 | x12 || A,6 E,2 x4 | x12 | x12 | x12 | x12 | x12 | x12 | %15
 x12 |] %16

